X:1
T:I'll Never Find Another You
T:I'll never find another you
T:Tom Springfield
C:Tom Springfield
Z:All Rights Reserved
L:1/4
M:4/4
K:F
V:1 treble nm="Electric Piano"
%%MIDI program 4
V:1
 z2 F G |"F" A2 A2 |"Bb" c B2 A |"G7" G3/2 D/ G F |"C7" E2 F G |"F" A2 c2 |"Am" d c2 c | %7
w: Theres a|new world|some- where they|call the pro- mised|land and I'll|be there|some day If|
"Bb" d3/2 c/ B d |"C7" c2 d e |"Dm" z f/f/ f f |"Bb" g f2 f |"C" e e"Bb" d d |"Am" c2"Bb" F G | %13
w: you will hold my|hand I still|need you there be-|side me no|mat- ter what to|do for I|
"F" A c B A |"C7" G F E G |"F" F4- |"Bb" F2"F" F G | A2 A2 |"Bb" c B2 A |"G7" G D G F | %20
w: know I'll nev- er|find an- oth- er|you|* There is|al- ways|some one for|each of us they|
"C7" E2 F G |"F" A2 c c |"Am" d c2 c |"Bb" d c B d |"C7" c2 d e |"Dm" f f f f |"Bb" g f2 f | %27
w: say and You|will be my|some one for|ev- er and a|day I will|search the whole world|ov- er un-|
"C" e e"Bb" d d |"Am" c2"Bb" F G |"F" A c"Bb" B A |"C7" G F E G |"F" F4- | F2 A c |"Dm" f2 f2 | %34
w: til my life is|through but I|know I'll nev- er|find an oth er|you|* Its a|long long|
"Bb" e d2 d |"F" c2"C7" B B |"F" A2"Bb" A c |"Dm" f2 f f |"C7" e e"Bb" d d |"F" c4- | c2"C7" c B | %41
w: jour- ney so|stay by my|side when I|walk through the|storm you"ll be my|guide|* if they|
"F" A2 A A |"Bb" c B2 A |"G7" G3/2 D/ G F |"C7" E2 F G |"F" A3/2 c/ c f |"Am" d c2 c | %47
w: gave me a|for- tune my|treas- ures would be|small I could|lose it all to-|mor- row and|
"Bb" d3/2 c/ B d |"C7" c2 d e |"Dm" f3/2 f/ f f |"Bb" g f2 f |"C" e e"Bb" d d |"Am" c2"Bb" F G | %53
w: nev- er mind at|all but if|I should lose your|love dear I|dont know what I'll|do for I|
"F" A c"Bb" B A |"C7" G F E G |"F" F4- |"Bb" F2"C7" d e |"Dm" f3/2 f/ f f |"Bb" g f2 f | %59
w: know I'll nev- er|find an- oth- er|you.|* but if|I should lose your|love dear I|
"C" e e"Bb" d d |"Am" c2"Bb" F G |"F" A c"Bb" B A |"C7" G F E G |"F" F4- |"Bb" F2"F" z2 |] %65
w: dont know what I"ll|do for I|know I'll nev- er|find an- oth er|you.||

